svgs/thin/chart-scatter.svg

<svg xmlns="http://www.w3.org/2000/svg" viewBox="0 0 512 512"><!-- Font Awesome Pro 6.0.0-alpha2 by @fontawesome - https://fontawesome.com License - https://fontawesome.com/license (Commercial License) --><path d="M192 200C214.062 200 232 182.062 232 160S214.062 120 192 120S152 137.938 152 160S169.938 200 192 200ZM192 136C205.234 136 216 146.766 216 160S205.234 184 192 184S168 173.234 168 160S178.766 136 192 136ZM416 168C438.062 168 456 150.062 456 128S438.062 88 416 88S376 105.938 376 128S393.938 168 416 168ZM416 104C429.234 104 440 114.766 440 128S429.234 152 416 152S392 141.234 392 128S402.766 104 416 104ZM384 360C406.062 360 424 342.062 424 320S406.062 280 384 280S344 297.938 344 320S361.938 360 384 360ZM384 296C397.234 296 408 306.766 408 320S397.234 344 384 344S360 333.234 360 320S370.766 296 384 296ZM288 296C310.062 296 328 278.062 328 256S310.062 216 288 216S248 233.938 248 256S265.938 296 288 296ZM288 232C301.234 232 312 242.766 312 256S301.234 280 288 280S264 269.234 264 256S274.766 232 288 232ZM160 360C182.062 360 200 342.062 200 320S182.062 280 160 280S120 297.938 120 320S137.938 360 160 360ZM160 296C173.234 296 184 306.766 184 320S173.234 344 160 344S136 333.234 136 320S146.766 296 160 296ZM504 464H72C41.125 464 16 438.875 16 408V40C16 35.594 12.406 32 8 32S0 35.594 0 40V408C0 447.688 32.312 480 72 480H504C508.406 480 512 476.406 512 472S508.406 464 504 464Z"/></svg>

<svg xmlns="http://www.w3.org/2000/svg" viewBox="0 0 512 512"><!--! Font Awesome Pro 6.0.0-alpha3 by @fontawesome - https://fontawesome.com License - https://fontawesome.com/license (Commercial License) --><path d="M192 200c22.06 0 40-17.94 40-40S214.1 120 192 120S152 137.9 152 160S169.9 200 192 200zM192 136c13.23 0 24 10.77 24 24S205.2 184 192 184S168 173.2 168 160S178.8 136 192 136zM416 168c22.06 0 40-17.94 40-40S438.1 88 416 88S376 105.9 376 128S393.9 168 416 168zM416 104c13.23 0 24 10.77 24 24S429.2 152 416 152S392 141.2 392 128S402.8 104 416 104zM384 360c22.06 0 40-17.94 40-40S406.1 280 384 280S344 297.9 344 320S361.9 360 384 360zM384 296c13.23 0 24 10.77 24 24s-10.77 24-24 24s-24-10.77-24-24S370.8 296 384 296zM288 296c22.06 0 40-17.94 40-40S310.1 216 288 216S248 233.9 248 256S265.9 296 288 296zM288 232c13.23 0 24 10.77 24 24S301.2 280 288 280S264 269.2 264 256S274.8 232 288 232zM160 360c22.06 0 40-17.94 40-40S182.1 280 160 280S120 297.9 120 320S137.9 360 160 360zM160 296c13.23 0 24 10.77 24 24S173.2 344 160 344S136 333.2 136 320S146.8 296 160 296zM504 464H72c-30.88 0-56-25.12-56-56V40C16 35.59 12.41 32 8 32S0 35.59 0 40v368C0 447.7 32.31 480 72 480h432c4.406 0 8-3.594 8-8S508.4 464 504 464z"/></svg>
